X:5216
T:Poor Jack Nunan
O:england
B:Joyce, P. W.; "Old Irish Folk Music and Songs"
R:song air
L:1/8
M:C
K:F
"Expressive"\
D>E|F2 F>G A2 AG|F2 A>F D3 d|f2 ec d2 ((3cAG)|F2 ((3GFG) A3 G|
F2 F>G A2 AG|F2 A>F D3 B|c2 f>e d2 (3cAG|A2 F>F F2||


